components/Icon/svg/hamburger.svg

<svg xmlns="http://www.w3.org/2000/svg" width="32" height="32" viewBox="0 0 32 32">
  <path fill="currentColor" fill-rule="evenodd" d="M4 7h24v3H4V7Zm0 8h24v3H4v-3Zm24 8H4v3h24v-3Z"/>
</svg>

<svg width="32" height="32" viewBox="0 0 32 32" fill="none" xmlns="http://www.w3.org/2000/svg">
<path fill-rule="evenodd" clip-rule="evenodd" d="M4 7H28V10H4V7ZM4 15H28V18H4V15ZM28 23H4V26H28V23Z" fill="currentColor"/>
</svg>
